X: 12523
T: Farewell To Ireland
R: reel
M: 4/4
K: Adorian
|:A3c e3f|gedB GBdB|A3c e3f|gedB eAAG|
A3c e3f|gedB d2 g2|edeg a2 ba|gedB BA A2:|
K:AMix
|:a3g agef|g3a gede|a3g agef|gedB BA A2|
agef gage|d3B GABd|(3cBA BA Bdef|gedB BA A2:|
|:eABA eABA|d3B GABd|eABA eAAf|gedB BA A2|
eABA eABA|d3B GABd|(3cBA BA Bdef|gedB BA A2:|
|:aece aece|gdBd gdBd|aece a3f|gedB BA A2|
agef g3e|dedB GABd|(3cBA BA Bdef|gedB BA A2:|

